X: 32431
T: Piper's Weird, The
R: jig
M: 6/8
K: Amajor
M:3/4
E2|A3 A A2|A4 A2|B3 A B2|c4 A2|f3 f f2|e4 c2|c2 B2 A2|B4
E2|A3 A A2|A4 A2|B3 A B2|c4 A2|f3 f f2|e4 c2|e2 B2 e2|A4||
e2|a4 A2|e4 A2|f3 A f2|e4 A2|a4 A2|e4 c2|c2 B2 A2|B4
e2|a4 A2|e4 A2|f3 A f2|e4 e2|f2 a2 f2|e4 c2|e2 B2 e2|A4||

